public/images/icons/zodiac/capricorn.svg

<svg xmlns="http://www.w3.org/2000/svg" width="48" height="48" fill="none" stroke="#c9a84c" stroke-linecap="round" stroke-linejoin="round" stroke-width="2" viewBox="0 0 48 48"><path d="M8 12c0-4 4-6 6-2v22c0 4 4 8 8 8s6-4 6-8V16m0 0c0-4 4-6 6-2s6 6 6 14c0 6-4 8-8 6s-4-6 0-8"/></svg>

<svg xmlns="http://www.w3.org/2000/svg" viewBox="0 0 48 48" width="48" height="48" fill="none" stroke="#C9A84C" stroke-width="2" stroke-linecap="round" stroke-linejoin="round">
  <!-- Capricorn: Sea goat glyph ♑ -->
  <path d="M8 12 C8 8 12 6 14 10 L14 32 C14 36 18 40 22 40 C26 40 28 36 28 32 L28 16"/>
  <path d="M28 16 C28 12 32 10 34 14 C36 18 40 20 40 28 C40 34 36 36 32 34 C28 32 28 28 32 26"/>
</svg>
